X: 1
M: 4/4
K: C
L: 1/8 
z2 CD   EG  FE | G2 D6 |z2DE  FA GF | G2E6 :|
w:Não há ma-cha-do que cor-te a ra-íz ao pen-sa-men-to
F2>F2  FF  FF | F2 E6 |G7D | F2 E6 ||
w:não há mor-te pa-rao ven-to  não  há mor-te
F2>F2  FF  FF | F2 E6 |G7B, | D2 C6 |]
w:não há mor-te pa-rao ven-to  não  há mor-te
</abc>
<abc>
